src/assets/img/info.svg

<svg fill="none" height="24" viewBox="0 0 24 24" width="24" xmlns="http://www.w3.org/2000/svg"><path d="m12 21c4.9706 0 9-4.0294 9-9 0-4.97056-4.0294-9-9-9-4.97056 0-9 4.02944-9 9 0 4.9706 4.02944 9 9 9z" stroke="#fff" stroke-linecap="round" stroke-linejoin="round" stroke-opacity=".8" stroke-width="1.5"/><path d="m11.25 11.25h.75v5.25h.75" stroke="#fff" stroke-linecap="round" stroke-linejoin="round" stroke-opacity=".8" stroke-width="1.5"/><path d="m11.8125 9c.6213 0 1.125-.50368 1.125-1.125s-.5037-1.125-1.125-1.125-1.125.50368-1.125 1.125.5037 1.125 1.125 1.125z" fill="#fff" fill-opacity=".8"/></svg>

<svg width="24" height="24" viewBox="0 0 24 24" fill="none" xmlns="http://www.w3.org/2000/svg">
<path d="M12 21C16.9706 21 21 16.9706 21 12C21 7.02944 16.9706 3 12 3C7.02944 3 3 7.02944 3 12C3 16.9706 7.02944 21 12 21Z" stroke="white" stroke-opacity="0.8" stroke-width="1.5" stroke-linecap="round" stroke-linejoin="round"/>
<path d="M11.25 11.25H12V16.5H12.75" stroke="white" stroke-opacity="0.8" stroke-width="1.5" stroke-linecap="round" stroke-linejoin="round"/>
<path d="M11.8125 9C12.4338 9 12.9375 8.49632 12.9375 7.875C12.9375 7.25368 12.4338 6.75 11.8125 6.75C11.1912 6.75 10.6875 7.25368 10.6875 7.875C10.6875 8.49632 11.1912 9 11.8125 9Z" fill="white" fill-opacity="0.8"/>
</svg>
